X: 18605
T: I Will Go Home To Kintail
R: waltz
M: 3/4
K: Dmixolydian
E4G2|A2D4|D4C2|E2D4|E4G2|A2D4|A4G2|E3DC2|
E4G2|A2D4|B3AG2|A2D4|E2G4|E2A4|A3GE2|D6|D6|
c3BA2|d4A2|B4A2|GEC4|c3BA2|d4A2|A4G2|E3DC2|
c3BA2|d4A2|B4A2|GEC4|D4D2|E3AAG|E4G2|E2D4|D6|

